!!!OTL: 55. Skotshne
!!!Genre:	Skotshne
!!!Mode:	Altered Dorian
!!!Listening/dance:	listening
!!!:	*G:frey; *C:; *G:frey
!!!One_Mode:	no
**kern
*thru
*I"P1
*clefG2
*>A
*k[b-]
*C:
!LO:TX:a:i:t=C-major
16gLL
16cc
16ddJJ
=24||
*k[]
*C:
4.ee
16ddLL
16ccJJ
=25
16ddLL
16eeJ
8gJ
16r
16gLL
16ee
16ffJJ
=26
4.gg
16ffLL
16eeJJ
=27
16eeLL
16gg
16ff#X
16aaJJ
4gg
=28
8cccL
[8eeJ
16eeLL]
16aa
16gg
16ffJJ
=29
16eeLL
16ddJ
8ccJ
8r
8cc
=30
(16ddLL
16g)
(16dd
16gJJ)
16ddLL
16ff
16ee
16ddJJ
=31
(16ddLL
16ccJ)
8ccJ
4r
!!!End-Modulation
!!!Begin-Modulation
*-
